X:752
T:Margaret Ann Robertson
C:Joe Buchanan's Scottish Tome - Page 489.0
I:489 0
Z:Carl Allison
C:Frank Jameson
R:Slow Air
L:1/8
M:3/4
K:A
"A"A,4 E2 | "A7"C4 A,2 | "D"D2> F2 A2 | "A"E6 |
"A"c4 BA | "F#m"{E}c4 A2 | "Bm"B2 G2 E2 | "E7"D2 C2 B,2 |
"A"A,4 E2 | "A7"C4 A,2 | "D"D2> F2 A2 | "A"E6 |
"A"c4 BA | "B7"{E}c4 {Bc}B2 | "A"{G}A6 | "A"{G}A6 :|
cd | "A"e4 A2 | "F#m"{g}a4 A2 | "C#m"{f}g4 A2 | "D"{g}f2 "E7"e2 cd |
"A"e4 A2 | "F#m"{fg}a4 c2 | "B7"B6 | "E7"e4 cd |
"A"e4 A2 | "F#m"{g}a4 A2 | "D"f2 g2 a2 | "A"e2> c2 A2 |
"A"A,2 C2 E2 | "F#m"A2 c2 e2 | "E7"d2 c2 {Bc}B2 | "A"A4 cd |
"A"e4 A2 | "F#m"{g}a4 A2 | "C#m"{d}g4 A2 | "D"{g}f2 e2 cd |
"A"e4 A2 | "F#m"{fg}a4 c2 | "B7"B6 | "E7"(e4"@-66,25glissando" A2) |
"A"A,4 E2 | "A7"C4 A,2 | "D"D2> F2 A2 | "A"E6 |
"A"c4 BA | "B7"{E}c4 "E7"{Bc}B2 | "A"{g}A6 | "A"{g}A4 |]
